X: 119
T:Silver Spear
R:Reel
M:4/4
L:1/8
Q:1/2=112
K:D
|:FA~A2 BAFA|dfed BcdA|FA~A2 BAFA|dfed B2A2|
FA~A2 BAFA|dfed Bcdf|~g3e ~f3e|dfed B2A2:|
|:f2af bfaf|gfed Bcde|f2af bfaf|gfed B2A2|
faaf bfaf|gfed Bcde|~g3e ~f3e|dfed B2A2:|
